X: 9539
T: Dashing White Eejit
R: reel
M: 4/4
K: Emajor
eBB/B/B ecce|Bcef gffg|eBeg fagb|aBgB fgec|
eBB/B/B ecce|Bcef gffb|aBgB fgec|1 Bebg feef:|2 Bebg feeB||
cffe fcac|gbfg efce|Beef e3 g|bgfe fgeB|
cffe fcac|gbfg efce|Beef e3 g|bgfa geeB|
cffe fcac|gbfg efce|Beef e3 g|bgfe fgeB|
cffe fcac|gbfg efce|Beef e3 g|bgfa ge e2||

